X: 20488
T: John Kelly's
R: reel
M: 4/4
K: Aminor
Addc ABcB|AcGE D2EG|Addc ABcB|AcGE C2EG|
Addc ABcB|AcGE DEFG|Addc ABcB|AcGE C2DE||
AddB cdec|dcAB cA (3BAG|AddB cdec|dcAB c2cB|
AddB cdec|dcAB cA (3BAG|fafd ~e3 c|dcAB c2cB||

